X:81
T:Big John McNeil
C:Peter Milne (1824-1908)
S:Colin Hume's website,  colinhume.com  - chords can also be printed below the stave.
Q:1/2=112
M:2/2
L:1/8
R:Reel
K:A
P:A
|: "A"A,2CE FECE | "A"AECE FECE | "A"A,2CE "F#m"FECE | "Bm"FAGF "E7"EDCB, |
"A"A,2CE FECE | "A"AECE FECE | "A"A,CB,D CEDF |\
[1 "E7"EGBd "A"cAA2 :|2 "E7"EGBd "A"cA ||
P:B
|: cd | "A"eAfA eAcd | "A"eAfA e2cd | "A"eAfA "F#m"eAce | "Bm"daca "E7"B2cd |
"A"eAfA eAcd | "A"eAfA e2ce | "A"agfe "D"fedc | "E7"defg "A"a2 :|

